!!!COM: Mozart, Wolfgang Amadeus
!!!CDT: 1756/01/27/-1791/12/05/
!!!CNT: German
!!!OTL: Piano Sonata No. 7 in C major
!!!SCT1: K<sup>1</sup> 309
!!!SCT2: K<sup>6</sup> 284b
!!!OMV: Mvmt. 3
!!!OMD: Rondo: Allegretto grazioso
!!!ODT: 1777///
**kern	**kern	**dynam
*staff2	*staff1	*staff1/2
*clefF4	*clefG2	*clefG2
*k[]	*k[]	*k[]
*C:	*C:	*C:
*M2/4	*M2/4	*M2/4
*MM112	*MM112	*MM112
8r	8gg\	mf
*clefG2	*	*
=1	=1	=1
16c/LL	(16ff\LL	.
16e/	16ee\	.
16g/	16dd\	.
16e/JJ	16cc\JJ)	.
16c/LL	8cc\L	.
16e/	.	.
16g/	8cc\J	.
16e/JJ	.	.
=2	=2	=2
16c/LL	4.cc\	.
16e/	.	.
16g/	.	.
16e/JJ	.	.
16c/LL	.	.
16e/	.	.
16g/	8ccc\	.
16e/JJ	.	.
=3	=3	=3
16c/LL	(16bb\LL	.
16f/	16aa\	.
16a/	16gg\	.
16f/JJ	16ff\JJ)	.
16c/LL	8ff\L	.
16f/	.	.
16a/	8ff\J	.
16f/JJ	.	.
=4	=4	=4
16c/LL	4.ff\	.
16f/	.	.
16a/	.	.
16f/JJ	.	.
16c/LL	.	.
16f/	.	.
16a/	8aa\	.
16f/JJ	.	.
=5	=5	=5
16c/LL	(16aa\LL	.
16e/	16gg\	.
16g/	16ff\	.
16e/JJ	16ee\JJ)	.
16c/LL	(8ee\L	.
16e/	.	.
16g/	8gg\J)	.
16e/JJ	.	.
=6	=6	=6
16B/LL	(16gg\LL	.
16d/	16ff\	.
16g/	16ee\	.
16d/JJ	16dd\JJ)	.
16B/LL	(8dd\L	.
16d/	.	.
16g/	8ff\J)	.
16d/JJ	.	.
=7	=7	=7
8c/	(16ff\LL	.
.	16ee\	.
(8e/ 8g/L	16dd\	.
.	16cc\JJ)	.
8d/ 8f/	8b'\L	.
8c/) 8e/J	8cc'\J	.
=8	=8	=8
[4G/ (4c/	(4ee\	.
8G/] 8B/)	8dd\L)	.
8r	8gg\J	.
=9	=9	=9
16c/LL	(16ff\LL	.
16e/	16ee\	.
16g/	16dd\	.
16e/JJ	16cc\JJ)	.
16c/LL	8cc\L	.
16e/	.	.
16g/	8cc\J	.
16e/JJ	.	.
=10	=10	=10
.	32bq/LLL	.
.	32ccq/	.
.	32ddq/JJJ	.
16c/LL	4.cc\	.
16e/	.	.
16g/	.	.
16e/JJ	.	.
16c/LL	.	.
16e/	.	.
16g/	8ccc\	.
16e/JJ	.	.
=11	=11	=11
16c/LL	(16bb\LL	.
16f/	16aa\	.
16a/	16gg\	.
16f/JJ	16ff\JJ)	.
16c/LL	8ff\L	.
16f/	.	.
16a/	8ff\J	.
16f/JJ	.	.
=12	=12	=12
.	32eeq/LLL	.
.	32ffq/	.
.	32ggq/JJJ	.
16c/LL	4.ff\	.
16f/	.	.
16a/	.	.
16f/JJ	.	.
16c/LL	.	.
16f/	.	.
16a/	8aa\	.
16f/JJ	.	.
=13	=13	=13
16c/LL	(16aa\LL	.
16e/	16gg\	.
16g/	16ff\	.
16e/JJ	16ee\JJ)	.
16c#/LL	(8ee\L	.
16e/	.	.
16a/	8gg\J)	.
16e/JJ	.	.
=14	=14	=14
16d/LL	(16gg\LL	.
16f/	16ff\	.
16a/	16ee\	.
16f/JJ	16dd\JJ)	.
16B/LL	(8dd\L	.
16d/	.	.
16g/	8ff\J)	.
16d/JJ	.	.
=15	=15	=15
*^	*	*
8cn/ 8g/	8r	(16ff\LL	.
.	.	16ee\	.
*clefF4	*clefF4	*	*
8d/L	8F\	16ff\	.
.	.	16dd\JJ)	.
8e/	4G\	(8cc\L	.
8d/J	.	8b\J	.
*v	*v	*	*
*clefG2	*	*
=16	=16	=16
.	16aq/LL	.
.	16bq/JJ)	.
(16c/LL	(16aa\LL	.
16e/	16gg\	.
16g/	16ff\	.
16e/JJ	16ee\JJ)	.
16c#/LL	(16eee\LL	.
16e/	16ccc#\	.
16a/	16aa\)	.
16e/JJ	16gg'\JJ	.
=17	=17	=17
16d/LL	(16gg\LL	.
16f/	16ff\	.
16a/	16ee\	.
16f/JJ	16dd\JJ)	.
16B/LL	(16ddd\LL	.
16d/)	16bb\	.
16g/	16gg\)	.
16d/JJ	16ff'\JJ	.
=18	=18	=18
*^	*	*
8cn/ 8g/	8r	(16ff\LL	.
.	.	16ee\)	.
*clefF4	*clefF4	*	*
8d/L	8F\	(16aa\	.
.	.	16ff\JJ)	.
8c/	4G\	(16ee\LL	.
.	.	16gg\)	.
8B/J	.	(16ff\	.
.	.	16dd\JJ)	.
*v	*v	*	*
=19	=19	=19
8c\	8cc\	.
8GG/ 8G/L	8r	.
8EE/ 8E/	(16c/LL	f
.	16e/	.
8CC/ 8C/J	16g/	.
.	16cc/JJ)	.
=20	=20	=20
*	*^	*
8GG/ 8G/	4cc/	4e\	.
8G\L	.	.	.
8G\	16ee/LL	4f\	.
.	(16dd/	.	.
8G\J	16cc/	.	.
.	16dd/JJ)	.	.
=21	=21	=21	=21
8c\	8cc/	8e\	.
8GG/ 8G/L	8r	4.r	.
8EE/ 8E/	16c/ 16e/LL	.	.
.	16e/ 16g/	.	.
8CC/ 8C/J	16g/ 16cc/	.	.
.	16cc/ 16ee/JJ	.	.
*	*v	*v	*
=22	=22	=22
8GG/ 8G/	4cc\ 4ee\	.
8G\L	.	.
8G\	16ee\ (16gg\LL	.
.	16dd\ 16ff\	.
8G\J	16cc\ 16ee\	.
.	16dd\ 16ff\JJ)	.
=23	=23	=23
8c\	8cc\ 8ee\	.
8GG/ 8G/L	8r	.
8EE/ 8E/	(16cc\LL	.
.	16ee\	.
8CC/ 8C/J	16gg\	.
.	16ccc\JJ)	.
=24	=24	=24
*^	*	*
2c/	(4F\	(8gg#\L	.
.	.	16aa\Jk)	>
.	.	16r	.
.	4E\	(8ff#\L	.
.	.	16ggn\Jk)	.
.	.	16r	.
=25	=25	=25	=25
2c/	4A\	(8ee\L	.
.	.	16ffn\Jk)	.
.	.	16r	.
.	4G\)	(8dd#\L	.
.	.	16ee\Jk)	.
.	.	16r	.
=26	=26	=26	=26
4A/	4F\	(16cc#\LL	.
.	.	16ddn\	.
.	.	16ff\	.
.	.	16aa\JJ	.
8r	8r	16gg\LL	.
.	.	16ff\	.
8f/	8F\	16ee\	.
.	.	16dd\JJ)	.
=27	=27	=27	=27
8e/L	4G\	(8ccn\L	.
8d/J	.	8b\J)	.
4r	4r	(16c/LL	f
.	.	16e/	.
.	.	16g/	.
.	.	16cc/JJ)	.
*v	*v	*	*
=28	=28	=28
*	*^	*
(16GG/LL	4cc/	4e\	.
16C/	.	.	.
16E/	.	.	.
16G/JJ)	.	.	.
8G\L	(16ee/LL	4f\	.
.	16dd/	.	.
8G\J	16cc/	.	.
.	16dd/JJ)	.	.
=29	=29	=29	=29
8c\L	8cc/	8e\	.
8C\J	8r	4.r	.
4r	16c/ 16e/LL	.	.
.	16e/ 16g/	.	.
.	16g/ 16cc/	.	.
.	16cc/ 16ee/JJ	.	.
*	*v	*v	*
=30	=30	=30
(16GG/LL	4cc\ 4ee\	.
16C/	.	.
16E/	.	.
16G/JJ)	.	.
8G\L	16ee\ (16gg\LL	.
.	16dd\ 16ff\	.
8G\J	16cc\ 16ee\	.
.	16dd\ 16ff\JJ)	.
=31	=31	=31
8c\L	8cc\ 8ee\	.
8C\J	8r	.
4r	16cc\LL	.
.	(16ee\	.
.	16gg\	.
.	16ccc\JJ	.
=32	=32	=32
*^	*	*
8r	(4F\	16gg#\LL	.
.	.	16aa\)	.
4c/	.	16aa'\	.
.	.	16aa'\JJ	.
.	4E\	(16ff#\LL	.
.	.	16ggn\)	.
[8c/	.	16gg'\	.
.	.	16gg'\JJ	.
=33	=33	=33	=33
8c/]	4A\	(16ee\LL	.
.	.	16ffn\)	.
4c/)	.	16ff'\	.
.	.	16ff'\JJ	.
.	4G\	(16dd#\LL	.
.	.	16ee\	.
8c/	.	16ee'\)	.
.	.	16ee'\JJ	.
*v	*v	*	*
=34	=34	=34
*	*^	*
(16E\LL	8ccc/	4cc\	.
16F\	.	.	.
16F'\)	(4aa/	.	.
16F'\JJ	.	.	.
(16D#\LL	.	4cc\	.
16E\)	.	.	.
16E'\	[8gg/	.	.
16E'\JJ	.	.	.
=35	=35	=35	=35
16C#/LL	8gg/]	4cc\	.
16Dn/	.	.	.
16D'/	4ff/	.	.
16D'/JJ	.	.	.
(16BB/LL	.	4cc\	.
16Cn/)	.	.	.
16C'/	8ee/)	.	.
16C'/JJ	.	.	.
*	*v	*v	*
=36	=36	=36
[2F\ [2A\	(8.dd\L	p
.	16ee\Jk)	.
.	(8.ff\L	.
.	16gg\Jk)	.
=37	=37	=37
4F\] 4A\]	(8.aa\L	.
.	16bb\Jk)	.
8F#\ 8A\	8ccc'\L	f
8r	16r	.
.	16ee\Jk	p
=38	=38	=38
8r	[4gg\	.
8G\ 8c\L	.	.
8G\ 8c\	(16gg\LL]	.
.	32ff#\L	.
.	32gg\JJJ	.
8G\ 8c\J	32aa\LLL	.
.	32gg\	.
.	32ffn\	.
.	32ee\JJJ	.
=39	=39	=39
8G\ 8B\	8dd\)	.
*clefG2	*	*
(8g/ 8b/L	8r	.
8a/ 8cc/	8r	.
8f#/) 8a/J	8dd\	f
=40	=40	=40
8g/ 8b/	(24ddd\LL	.
.	24eee\	.
.	24ddd\JJ	.
8r	24ccc\LL	.
.	24bb\	.
.	24aa\JJ	.
4r	24bb\LL	.
.	24ccc\	.
.	24bb\JJ	.
.	24aa\LL	.
.	24gg\	.
.	24ff#\JJ	.
=41	=41	=41
2r	24gg\LL	.
.	24aa\	.
.	24gg\JJ	.
.	24ff#\LL	.
.	24ee\	.
.	24dd#\JJ	.
.	24ee\LL	.
.	24ff#\	.
.	24ee\JJ	.
.	24ddn\LL	.
.	24cc\	.
.	24b\JJ	.
*clefF4	*	*
=42	=42	=42
8r	8.cc\L	.
8G\ 8A\ 8e\L	.	.
.	32ee\LL	.
.	32dd\JJJ	.
8G\ 8A\ 8e\	8cc\)	.
8G\ 8A\ 8e\J	16r	.
.	16cc\	p
=43	=43	=43
8r	(8.cc\L	.
8G\ 8A\ 8e-\L	.	.
.	32ee-\LL	.
.	32dd\JJJ	.
8G\ 8A\ 8e-\	8cc\)	.
8G\ 8A\ 8e-\J	16r	.
.	16cc\	.
=44	=44	=44
8F#\ 8A\ 8d\	(24ccc\LL	f
.	24ddd\	.
.	24ccc\JJ	.
8r	24bb\LL	.
.	24aa\	.
.	24gg#\JJ	.
4r	24aa\LL	.
.	24bb\	.
.	24aa\JJ	.
.	24ggn\LL	.
.	24ff#\	.
.	24ee#\JJ	.
=45	=45	=45
2r	24ff#\LL	.
.	24gg\	.
.	24ff#\JJ	.
.	24een\LL	.
.	24dd\	.
.	24cc#\JJ	.
.	24dd\LL	.
.	24ee\	.
.	24dd\JJ	.
.	24ccn\LL	.
.	24b\	.
.	24a\JJ	.
=46	=46	=46
8r	8.b\L	.
8G\ 8d\L	.	.
.	32dd\LL	.
.	32cc\JJJ	.
8G\ 8d\	8b\)	.
8G\ 8d\J	16r	.
.	16b\	p
=47	=47	=47
8r	(8.b\L	.
8G\ 8d\L	.	.
.	32dd\LL	.
.	32cc\JJJ	.
8G\ 8d\	8b\)	.
8G\ 8d\J	16r	.
.	16dd\	.
=48	=48	=48
4BB\ 4G\	(24bb\LL	f
.	24ddd\	.
.	24ccc\JJ	.
.	24bb\LL	.
.	24aa\	.
.	24gg\JJ	.
4r	24ff#\LL	.
.	24aa\	.
.	24gg\JJ	.
.	24bb\LL	.
.	24dd#\	.
.	24ff#\JJ	.
=49	=49	=49
4C\ 4G\	24ee\LL	.
.	24gg\	.
.	24ff#\JJ	.
.	24ee\LL	.
.	24ddn\	.
.	24cc\JJ	.
4r	24b\LL	.
.	24dd\	.
.	24cc\JJ	.
.	24ee\LL	.
.	24g#\	.
.	24b\JJ	.
=50	=50	=50
(24A\LL	24a/LL	.
24c\	24cc/	.
24B\JJ	24b/JJ	.
24A\LL	24a/LL	.
24Gn\	24gn/	.
24F#\JJ	24f#/JJ	.
24E\LL	24e/LL	.
24G\	24g/	.
24F#\JJ	24f#/JJ	.
24A\LL	24a/LL	.
24C#\	24c#/	.
24E\JJ	24e/JJ	.
=51	=51	=51
24D\LL	24d/LL	.
24E\	24e/	.
24C#\JJ	24c#/JJ	.
24D\LL	24d/LL	.
24E\	24e/	.
24C#\JJ	24c#/JJ	.
24D\LL	24d/LL	.
24E\	24e/	.
24C#\JJ	24c#/JJ	.
24D\LL	24d/LL	.
24E\	24e/	.
24C#\JJ	24c#/JJ)	.
=52	=52	=52
8D\)	8d'/L	.
8r	8ccn/	p
4r	8cc/	.
.	8cc/J	.
*clefG2	*	*
=53	=53	=53
*^	*	*
16f#/LL	8d\L	(8cc\L	.
16a/	.	.	.
16f#/	8e-\	8ccc\)	.
16a/JJ	.	.	.
16f#/LL	8d\	8ccc'\	.
16a/	.	.	.
16f#/	8e-\J	8ccc'\J	.
16a/JJ	.	.	.
=54	=54	=54	=54
16f#/LL	8d\L	(8.ccc\L	.
16a/	.	.	.
16f#/	8e-\	.	.
16a/JJ	.	16aa\Jk	.
16f#/LL	8d\	8ff#'\)	.
16a/	.	.	.
16f#/	8e-\J	8r	.
16a/JJ	.	.	.
=55	=55	=55	=55
16f#/LL	8d\L	16r	.
16a/	.	(16cc\LL	.
16f#/	8e-\	16ccc\)	.
16a/JJ	.	16ccc'\JJ	<
16f#/LL	8d\	16ccc'\LL	.
16a/	.	16ccc'\	.
16f#/	8e-\J	16ccc'\	.
16a/JJ	.	16ccc'\JJ	.
=56	=56	=56	=56
16f#/LL	8d\L	(8.ccc\L	.
16a/	.	.	.
16f#/	8e-\	.	.
16a/JJ	.	16aa\Jk	.
16f#/LL	8d\	8ff#'\)	.
16a/	.	.	.
16f#/	8e-\J	8r	.
16a/JJ	.	.	.
=57	=57	=57	=57
16f#/LL	8d\L	[8ccc\L	f
16a/	.	.	.
16f#/	8e-\	(32ccc\LL]	.
.	.	32aa\	.
16a/JJ	.	32ccc\	.
.	.	32aa\JJJ	.
16f#/LL	8d\	8ff#'\)	.
16a/	.	.	.
16f#/	8c\J	8r	.
16a/JJ	.	.	.
*v	*v	*	*
=58	=58	=58
8B/ 8g/	32dd\LLL	ff
.	32ddd\	.
.	32dd\	.
.	32ddd\JJJ	.
8r	32dd\LLL	.
.	32ddd\	.
.	32dd\	.
.	32ddd\JJJ	.
8g/ 8b/L	32dd\LLL	.
.	32ddd\	.
.	32dd\	.
.	32ddd\JJJ	.
8f#/ 8cc/J	32dd\LLL	.
.	32ddd\	.
.	32dd\	.
.	32ddd\JJJ	.
=59	=59	=59
8g/ 8b/	32dd\LLL	.
.	32ddd\	.
.	32dd\	.
.	32ddd\JJJ	.
8r	32dd\LLL	.
.	32ddd\	.
.	32dd\	.
.	32ddd\JJJ	.
*clefF4	*	*
8G\ 8B\L	32dd\LLL	.
.	32ddd\	.
.	32dd\	.
.	32ddd\JJJ	.
8F#\ 8c\J	32dd\LLL	.
.	32ddd\	.
.	32dd\	.
.	32ddd\JJJ	.
=60	=60	=60
8G\ 8B\	32dd\LLL	.
.	32ddd\	.
.	32dd\	.
.	32ddd\JJJ	.
8r	32dd\LLL	.
.	32ddd\	.
.	32dd\	.
.	32ddd\JJJ	.
*clefG2	*	*
16g'/ 16b'/LL	32dd\LLL	.
.	32ddd\	.
16g'/ 16b'/	32dd\	.
.	32ddd\JJJ	.
16f#'/ 16cc'/	32dd\LLL	.
.	32ddd\	.
16f#'/ 16cc'/JJ	32dd\	.
.	32ddd\JJJ	.
=61	=61	=61
8g/ 8b/	32dd\LLL	.
.	32ddd\	.
.	32dd\	.
.	32ddd\JJJ	.
8r	32dd\LLL	.
.	32ddd\	.
.	32dd\	.
.	32ddd\JJJ	.
*clefF4	*	*
16G'\ 16B'\LL	32dd\LLL	.
.	32ddd\	.
16G'\ 16B'\	32dd\	.
.	32ddd\JJJ	.
16F#'\ 16c'\	32dd\LLL	.
.	32ddd\	.
16F#'\ 16c'\JJ	32dd\	.
.	32ddd\JJJ	.
=62	=62	=62
8G\ 8B\	16dd\ 16ddd\	.
.	16ccc'\LL	.
8r	16bb'\	.
.	16aa'\JJ	.
4r	16gg'\LL	.
.	16ff#'\	.
.	16ee'\	.
.	16dd'\JJ	.
=63	=63	=63
.	(32ccq/LLL	.
.	32ddq/JJJ	.
8C\ 8E\ 8A\	16ee'\LL)	.
.	16dd'\	.
8r	16cc'\	.
.	16b'\JJ	.
4r	16a'/LL	.
.	16g'/	.
.	16f#'/	.
.	16e'/JJ	.
=64	=64	=64
8DD/ 8D/	8d/	.
8r	8r	.
8DD#/ 8D#/	8A/ 8c/ 8f#/	.
8r	8r	.
=65	=65	=65
8EE/ 8E/	8G/ 8B/ 8g/	.
8r	8r	.
4r	4r	.
*clefG2	*	*
=66	=66	=66
.	(32aaq/	.
8r	[4gg\)	p
8c#/ 8e/ 8a/L	.	.
8c#/ 8e/ 8a/	(16gg\LL]	.
.	16ff#\)	.
8c#/ 8e/ 8a/J	(16gg\	.
.	16ee\JJ)	.
=67	=67	=67
8r	[4dd\	.
8d/ 8g/ 8b/L	.	.
8d/ 8g/ 8b/	(16dd\LL]	.
.	16cc#\)	.
8d/ 8g/ 8b/J	(16dd\	.
.	16b\JJ)	.
=68	=68	=68
.	(32ddq/	.
8r	[4ccn\)	.
8d/ 8f#/ 8a/L	.	.
8d/ 8f#/ 8a/	(16cc\LL]	.
.	16b\)	.
8d/ 8f#/ 8a/J	(16cc\	.
.	16a\JJ)	.
=69	=69	=69
4r	32dd\LLL	f
.	32ddd\	.
.	32dd\	.
.	32ddd\JJJ	.
.	32dd\LLL	.
.	32ddd\	.
.	32dd\	.
.	32ddd\JJJ	.
8g/ 8b-/L	32dd\LLL	.
.	32ddd\	.
.	32dd\	.
.	32ddd\JJJ	.
8f#/ 8cc/J	32dd\LLL	.
.	32ddd\	.
.	32dd\	.
.	32ddd\JJJ	.
=70	=70	=70
8g/ 8b-/	32dd\LLL	.
.	32ddd\	.
.	32dd\	.
.	32ddd\JJJ	.
8r	32dd\LLL	.
.	32ddd\	.
.	32dd\	.
.	32ddd\JJJ	.
*clefF4	*	*
8G\ 8B-\L	32dd\LLL	.
.	32ddd\	.
.	32dd\	.
.	32ddd\JJJ	.
8F#\ 8c\J	32dd\LLL	.
.	32ddd\	.
.	32dd\	.
.	32ddd\JJJ	.
=71	=71	=71
8G\ 8B-\	32dd\LLL	.
.	32ddd\	.
.	32dd\	.
.	32ddd\JJJ	.
8r	32dd\LLL	.
.	32ddd\	.
.	32dd\	.
.	32ddd\JJJ	.
*clefG2	*	*
16g'/ 16bn'/LL	32dd\LLL	.
.	32ddd\	.
16g'/ 16b'/	32dd\	.
.	32ddd\JJJ	.
16f#'/ 16cc'/	32dd\LLL	.
.	32ddd\	.
16f#'/ 16cc'/JJ	32dd\	.
.	32ddd\JJJ	.
=72	=72	=72
8g/ 8b/	32dd\LLL	.
.	32ddd\	.
.	32dd\	.
.	32ddd\JJJ	.
8r	32dd\LLL	.
.	32ddd\	.
.	32dd\	.
.	32ddd\JJJ	.
*clefF4	*	*
16G'\ 16Bn'\LL	32dd\LLL	.
.	32ddd\	.
16G'\ 16B'\	32dd\	.
.	32ddd\JJJ	.
16F#'\ 16c'\	32dd\LLL	.
.	32ddd\	.
16F#'\ 16c'\JJ	32dd\	.
.	32ddd\JJJ	.
=73	=73	=73
8G\ 8B\	32dd\LLL	.
.	32ddd\	.
.	32dd\	.
.	32ddd\JJJ	.
4.BB\ 4.F#\ 4.A\	32dd#\LLL	.
.	32ddd#\	.
.	32dd#\	.
.	32ddd#\JJJ	.
.	32dd#\LLL	.
.	32ddd#\	.
.	32dd#\	.
.	32ddd#\JJJ	.
.	32dd#\LLL	.
.	32ddd#\	.
.	32dd#\	.
.	32ddd#\JJJ	.
=74	=74	=74
8C\ 8G\	32ee\LLL	.
.	32eee\	.
.	32ee\	.
.	32eee\JJJ	.
4.C#\ 4.E\ 4.G\	32b-\LLL	.
.	32bb-\	.
.	32b-\	.
.	32bb-\JJJ	.
.	32b-\LLL	.
.	32bb-\	.
.	32b-\	.
.	32bb-\JJJ	.
.	32b-\LLL	.
.	32bb-\	.
.	32b-\	.
.	32bb-\JJJ	.
=75	=75	=75
8D\ 8G\	24bbn\LL	f
.	(24ddd\	.
.	24bb\JJ	.
8r	24gg\LL	.
.	24dd\	.
.	24bn\JJ	.
24r	24g/LL	.
(24B\LL	24b/	.
24G\JJ	24g/JJ	.
24D/LL	24d/LL	.
24BB/	24B/	.
24GG/JJ	24G/JJ	.
=76	=76	=76
8DD/)	8d/)	.
8r	8r	.
8D\ 8d\	8a\ 8cc\ 8dd\ 8ff#\	.
8r	8r	.
=77	=77	=77
8GG/ 8G/	8g\ 8b\ 8dd\ 8gg\	.
8r	8r	.
4r	16g'/LL	p
.	16a'/	.
.	16b'/	.
.	16cc'/JJ	.
=78	=78	=78
2r	8dd'\L	.
.	8ee'\	.
.	8dd'\	.
.	8cc#'\J	.
=79	=79	=79
8r	8ccn\	.
8F#\ 8e-\	8r	.
8r	8b\	.
8G\ 8d\	8r	.
=80	=80	=80
4C\ 4En\	8r	.
.	(8a/L	.
8r	8cc/	.
8D\ (8c\	8f#/J	.
=81	=81	=81
(8G\ 8B\L)	8g/)	.
8GG\J)	8r	.
4r	16gg'\LL	.
.	16aa'\	.
.	16bb'\	.
.	16ccc'\JJ	.
=82	=82	=82
2r	8ddd'\L	.
.	8eee'\	.
.	8ddd'\	.
.	8ccc#'\J	.
*clefG2	*	*
=83	=83	=83
8r	8cccn\	.
8d#/ 8f#/	8r	.
8r	8bb\	.
8e/ 8g/	8r	.
=84	=84	=84
4c/ 4e/	8r	.
.	(8aa\L	.
8r	8ccc\	.
8dn/ 8cc/	8ff#\J	.
=85	=85	=85
8g/ 8b/	4gg\)	f
*clefF4	*	*
8D\ (8d\L	.	.
8BB\ 8B\	8r	.
8GG\ 8G\J)	8B/ 8d/ 8g/	.
=86	=86	=86
8r	4d/ 4g/ 4b/	.
(8BB/ 8B/L	.	.
8GG/ 8G/	8r	.
8DD/) 8D/J	8d/ 8g/ 8b/	.
=87	=87	=87
8r	4g\ 4b\ 4dd\	.
(8FFn/ 8Fn/L	.	.
8DD/ 8D/	8r	.
8BBB/) 8BB/J	8g\ 8b\ 8dd\	.
=88	=88	=88
8r	4g\ 4b\ 4dd\ 4ffn\	.
(8DD/ 8D/L	.	.
8BBB/ 8BB/	8r	.
8GGG/) 8GG/J	8g\ 8b\ 8dd\ 8ff\	.
=89	=89	=89
4GG/ 4G/	8dd\ 8ff\ 8gg\ 8bb\	.
.	(8ff\L	p
8r	8dd\	.
8G\ 8B\ 8d\	8b\J)	.
=90	=90	=90
4G\ 4B\ 4d\	8r	.
.	(8bb\L	<
8r	8ff\	.
8G\ 8B\ 8d\	8dd\J)	.
=91	=91	=91
4G\ 4B\ 4d\	8r	.
.	(8fff\L	.
8r	8ddd\	.
8G\ 8B\ 8d\	8bb\J)	.
=92	=92	=92
4G\ 4B\ 4d\ 4f\	8r	.
.	(8ddd\L	.
4r	8bb\	.
.	8ff\J)	.
*clefG2	*	*
=93	=93	=93
16c/LL	(16ff\LL	p
16e/	16ee\	.
16g/	16dd\	.
16e/JJ	16cc\JJ)	.
16c/LL	8cc\L	.
16e/	.	.
16g/	8cc\J	.
16e/JJ	.	.
=94	=94	=94
16c/LL	4.cc\	.
16e/	.	.
16g/	.	.
16e/JJ	.	.
16c/LL	.	.
16e/	.	.
16g/	8ccc\	.
16e/JJ	.	.
=95	=95	=95
16c/LL	(16bb\LL	.
16f/	16aa\	.
16a/	16gg\	.
16f/JJ	16ff\JJ)	.
16c/LL	8ff\L	.
16f/	.	.
16a/	8ff\J	.
16f/JJ	.	.
=96	=96	=96
16c/LL	4.ff\	.
16f/	.	.
16a/	.	.
16f/JJ	.	.
16c/LL	.	.
16f/	.	.
16a/	8aa\	.
16f/JJ	.	.
=97	=97	=97
16c/LL	(16aa\LL	.
16e/	16gg\	.
16g/	16ff\	.
16e/JJ	16ee\JJ)	.
16c/LL	(8ee\L	.
16e/	.	.
16g/	8gg\J)	.
16e/JJ	.	.
=98	=98	=98
16B/LL	(16gg\LL	.
16d/	16ff\	.
16g/	16ee\	.
16d/JJ	16dd\JJ)	.
16B/LL	(8dd\L	.
16d/	.	.
16g/	8ff\J)	.
16d/JJ	.	.
=99	=99	=99
8c/	(16ff\LL	.
.	16ee\	.
(8e/ 8g/L	16dd\	.
.	16cc\JJ)	.
8d/ 8f/	8b'\L	.
8c/) 8e/J	8cc'\J	.
=100	=100	=100
[4G/ (4c/	(4ee\	.
8G/] 8B/)	16dd\LL)	.
.	(16ff#\	.
8r	16gg\	.
.	16ffn\JJ)	.
=101	=101	=101
16c/LL	(16ff\LL	.
16e/	16ee\	.
16g/	16dd\	.
16e/JJ	16cc\JJ	.
16c/LL	16b\LL	.
16e/	16cc\	.
16g/	16dd\	.
16e/JJ	16cc\JJ)	.
=102	=102	=102
16c/LL	[4cc\	.
16e/	.	.
16g/	.	.
16e/JJ	.	.
16c/LL	(16cc\LL]	.
16e/	16gg\	.
16g/	16ee\	.
16e/JJ	16ccc\JJ)	.
=103	=103	=103
16c/LL	(16bb\LL	.
16f/	16aa\	.
16a/	16gg\	.
16f/JJ	16ff\JJ	.
16c/LL	16ee\LL	.
16f/	16ff\	.
16a/	16gg\	.
16f/JJ	16ff\JJ)	.
=104	=104	=104
16c/LL	[4ff\	.
16f/	.	.
16a/	.	.
16f/JJ	.	.
16c/LL	(16ff\LL]	.
16f/	16aa\	.
16a/	16ccc\	.
16f/JJ	16aa\JJ)	.
=105	=105	=105
16c/LL	(16aa\LL	.
16e/	16gg\	.
16g/	16ff\	.
16e/JJ	16ee\JJ)	.
16c#/LL	(16ee\LL	.
16e/	16bb-\	.
16a/	16aa\	.
16e/JJ	16gg\JJ)	.
=106	=106	=106
16d/LL	(16gg\LL	.
16f/	16ff\	.
16a/	16ee\	.
16f/JJ	16dd\JJ)	.
16B/LL	(16dd\LL	.
16d/	16aa\	.
16g/	16gg\	.
16d/JJ	16ff\JJ)	.
=107	=107	=107
*^	*	*
8cn/ 8g/	8r	(16ff\LL	.
.	.	16ee\	.
*clefF4	*clefF4	*	*
8d/L	8F\	16ff\	.
.	.	16dd\JJ	.
8e/	4G\	8cc\L)	.
8d/J	.	8b\J	.
*v	*v	*	*
=108	=108	=108
.	(16aq/LL	.
.	16bq/JJ)	.
(16C\LL	(16gg\LL	f
16G\	16ee\)	.
16E\	16eee'\	.
16G\JJ	16eee'\JJ	.
16C#\LL	(16eee\LL	.
16A\	16gg\	.
16E\	16aa\	.
16A\JJ)	16ee\JJ)	.
=109	=109	=109
(16D\LL	(16ff\LL	.
16A\	16dd\)	.
16F\	16ddd'\	.
16A\JJ	16ddd'\JJ	.
16BB\LL	(16ddd\LL	.
16G\	16ff\	.
16D\	16gg\	.
16G\JJ)	16dd\JJ)	.
=110	=110	=110
*^	*	*
8Cn/	8r	(16ee\LL	.
.	.	16ccc\	.
4r	(16e\LL	16gg#\	.
.	16f\JJ)	16aa\JJ)	.
.	(16d#\LL	(16ff#\LL	.
.	16e\JJ)	16ggn\)	.
(16dn/LL	8G\	(16ffn\	.
16B/JJ)	.	16dd\JJ)	.
*v	*v	*	*
=111	=111	=111
8c\	(32cc\LLL	.
.	32ccc\	.
.	32cc\	.
.	32ccc\JJJ	.
8r	32cc\LLL	.
.	32ccc\	.
.	32cc\	.
.	32ccc\JJJ	.
*clefG2	*	*
8e/ 8g/L	32cc\LLL	.
.	32ccc\	.
.	32cc\	.
.	32ccc\JJJ	.
8f/ 8a/J	32cc\LLL	.
.	32ccc\	.
.	32cc\	.
.	32ccc\JJJ	.
=112	=112	=112
8g/ 8b-/	32cc\LLL	.
.	32ccc\	.
.	32cc\	.
.	32ccc\JJJ	.
8r	32cc\LLL	.
.	32ccc\	.
.	32cc\	.
.	32ccc\JJJ	.
*clefF4	*	*
8E\ 8G\L	32cc\LLL	.
.	32ccc\	.
.	32cc\	.
.	32ccc\JJJ	.
8F\ 8A\J	32cc\LLL	.
.	32ccc\	.
.	32cc\	.
.	32ccc\JJJ	.
=113	=113	=113
8G\ 8B-\	32cc\LLL	.
.	32ccc\	.
.	32cc\	.
.	32ccc\JJJ	.
8r	32cc\LLL	.
.	32ccc\	.
.	32cc\	.
.	32ccc\JJJ	.
*clefG2	*	*
16e'/ 16g'/LL	32cc\LLL	.
.	32ccc\	.
16e'/ 16g'/	32cc\	.
.	32ccc\JJJ	.
16f'/ 16a'/	32cc\LLL	.
.	32ccc\	.
16f'/ 16a'/JJ	32cc\	.
.	32ccc\JJJ	.
=114	=114	=114
8g/ 8b-/	32cc\LLL	.
.	32ccc\	.
.	32cc\	.
.	32ccc\JJJ	.
8r	32cc\LLL	.
.	32ccc\	.
.	32cc\	.
.	32ccc\JJJ	.
*clefF4	*	*
16E'\ 16G'\LL	32cc\LLL	.
.	32ccc\	.
16E'\ 16G'\	32cc\	.
.	32ccc\JJJ	.
16F'\ 16A'\	32cc\LLL	.
.	32ccc\	.
16F'\ 16A'\JJ	32cc\	.
.	32ccc\JJJ)	.
=115	=115	=115
8G\ 8B-\	16cc\LL	.
.	(16bbn\	>
8r	16ccc\	.
.	16bb\JJ	.
4r	16bb-\LL	.
.	16aa\	.
.	16bb-\	.
.	16gg\JJ)	.
*clefG2	*	*
=116	=116	=116
16f/LL	16ff\LL	p
.	32ggq/	.
16cc/	(32ff\L	.
.	32ee\J	.
16a/	16ff'\	.
16cc/JJ	16gg'\JJ)	.
16f/LL	16aa\LL	.
.	32bb-q/	.
16cc/	(32aa\L	.
.	32gg\J	.
16a/	16aa'\)	.
16cc/JJ	16bb-'\JJ	.
=117	=117	=117
16e/LL	(8.ccc\L	.
16cc/	.	.
16g/	.	.
16cc/JJ	16ddd\Jk	.
16c/LL	8bb-\L)	.
16cc/	.	.
16g/	8gg\J	.
16cc/JJ	.	.
=118	=118	=118
16f/LL	16ff\LL	.
.	(32ggq/	.
16cc/	32ff\L	.
.	32ee\J	.
16a/	16ff'\)	.
16cc/JJ	16gg'\JJ	.
16f/LL	16aa\LL	.
.	(32bb-q/	.
16cc/	32aa\L	.
.	32gg\J	.
16a/	16aa'\)	.
16cc/JJ	16bb-'\JJ	.
=119	=119	=119
16c/LL	(8aa\L	.
16cc/	.	.
16bn/	8gg\J)	.
16cc/JJ	.	.
16c/LL	(16ff\LL	.
16b-/	16ee\	.
16g/	16dd\	.
16b-/JJ	16cc\JJ)	.
=120	=120	=120
16f/LL	16ff\LL	.
.	32ggq/	.
16cc/	(32ff\L	.
.	32ee\J	.
16a/	16ff'\	.
16cc/JJ	16gg'\JJ)	.
16f/LL	16aa\LL	.
.	(32bb-q/	.
16cc/	32aa\L	.
.	32gg\J	.
16a/	16aa'\)	.
16cc/JJ	16bb-'\JJ	.
=121	=121	=121
16e/LL	(8.ccc\L	.
16cc/	.	.
16g/	.	.
16cc/JJ	16ddd\Jk	.
16e/LL	8bb-\L)	.
16cc/	.	.
16b-/	8gg\J	.
16cc/JJ	.	.
=122	=122	=122
16f/LL	(8.aa\L	.
16cc/	.	.
16a/	.	.
16cc/JJ	16bb-\Jk	.
16c/LL	8gg\L)	.
16b-/	.	.
16g/	8ee\J	.
16b-/JJ	.	.
=123	=123	=123
8f/ 8a/	(16ff\LL	<
.	16cc\	.
8r	16dd\	.
.	16a\JJ)	.
4r	(16b-/LL	.
.	16g/)	.
.	(16cc/	.
.	16e/JJ)	.
*clefF4	*	*
=124	=124	=124
(16FF/LL	[16f/LL	f
.	32gq/	.
16C/	(32f/L]	.
.	32e/J	.
16AA/	16f'/)	.
16C/JJ	16g'/JJ	.
16FF/LL	16a/LL	.
.	(32b-q/	.
16C/	(32a/L)	.
.	32g/J	.
16AA/	16a'/)	.
16C/JJ	16b-'/JJ	.
=125	=125	=125
16EE/LL	(8.cc\L	.
16C/	.	.
16GG/	.	.
16C/JJ	16dd\Jk	.
16CC/LL	8b-/L)	.
16GG/	.	.
16EE/	8g/J	.
16GG/JJ	.	.
=126	=126	=126
16FF/LL	16f/LL	.
.	(32gq/	.
16C/	(32f/L)	.
.	32e/J	.
16AA/	16f'/)	.
16C/JJ	16g'/JJ	.
16FF/LL	16a/LL	.
.	(32b-q/	.
16C/	(32a/L)	.
.	32g/J	.
16AA/	16a'/)	.
16C/JJ	16b-'/JJ	.
=127	=127	=127
16CC/LL	(8a/L	.
16C/	.	.
16GG/	8g/J)	.
16C/JJ	.	.
16CC/LL	(16f/LL	.
16BB-/	16e/	.
16GG/	16d/	.
16BB-/JJ)	16c/JJ)	.
=128	=128	=128
8FF/ 8AA/	16f/LL	.
.	(32gq/	.
.	(32f/L)	.
.	32e/J	.
8r	16f'/)	.
.	16g'/JJ	.
4r	16a/LL	.
.	(32b-q/	.
.	32a/L)	.
.	32g/J	.
.	16a/)	.
.	16b-'/JJ	.
=129	=129	=129
16A\LL	16cc\LL	.
(32Bq/	32ddq/	.
(32A\L)	(32cc\L	.
32G\J	32b-\J	.
16A'\)	16cc'\)	.
16B-'\JJ	16dd'\JJ	.
16c\LL	16ee\LL	.
32dq/	32ffq/	.
(32c\L	(32ee\L	.
32B-\J	32dd\J	.
16c'\)	16ee\)	.
16d'\JJ	16ff'\JJ	.
=130	=130	=130
8r	(16ff\LL	.
.	16dd\)	.
8B-\L	16dd\ (16ff\	.
.	16b-\ 16dd\JJ)	.
8c\	(16a/ 16cc/LL	.
.	(16f/) 16a/	.
8C\J	16g/ 16b-/	.
.	16e/) 16g/JJ	.
=131	=131	=131
4F\	(8f'\L	p
.	8a'\	.
4r	8cc'\	.
.	8ee'\J)	.
*clefG2	*	*
=132	=132	=132
8r	8ff\	.
8f/ 8a/L	4aa\	.
8f/ 8a/	.	.
8f/ 8a/J	(32gg\LLL	.
.	32ff\	.
.	32ee\	.
.	32dd\JJJ	.
=133	=133	=133
8e/ 8g/ 8b-/	8cc#\L)	p
8r	(8ee'\	.
4r	8gg'\	.
.	8bb-'\J)	.
=134	=134	=134
8r	8ccc#\	.
8c#/ 8g/ 8a/L	4eee\	.
8c#/ 8g/ 8a/	.	.
8c#/ 8g/ 8a/J	(32ddd\LLL	.
.	32ccc#\	.
.	32bbn\	.
.	32aa\JJJ	.
=135	=135	=135
8d/ 8f/ 8a/L	16fff\LL	f
.	16aa\	.
8f/J	16bbn\)	.
.	16ddd'\JJ	.
8cn/ 8g/L	(16eee\LL	.
.	16ff#\	.
8e/ 8cc/J	16gg\)	.
.	16cccn'\JJ	.
=136	=136	=136
8f/ 8a/L	(16eee\LL	.
.	16ddd\JJ)	.
8f/ 8a/	4ddd\	.
8f/ 8a/	.	.
8f#/ 8a/ 8dd/J	8ccc\	.
=137	=137	=137
.	16bbq/LL	.
.	16cccq/JJ	.
4g\ 4b\ 4dd\	(24bb\LL	.
.	24ddd\	.
.	24ccc\JJ	.
.	24bb\LL	.
.	24aa\	.
.	24gg\JJ	.
4r	24ff#\LL	.
.	24aa\	.
.	24gg\JJ	.
.	24bb\LL	.
.	24dd\	.
.	24ffn\JJ	.
=138	=138	=138
4g/ 4cc/	24ee\LL	.
.	24gg\	.
.	24ff\JJ	.
.	24ee\LL	.
.	24dd\	.
.	24cc\JJ	.
4r	24b\LL	.
.	24dd\	.
.	24cc\JJ	.
.	24ee\LL	.
.	24a\	.
.	24cc\JJ	.
*clefF4	*	*
=139	=139	=139
(24B\LL	24b\LL	.
24d\	24dd\	.
24c\JJ	24cc\JJ	.
24B\LL	24b/LL	.
24A\	24a/	.
24G\JJ	24g/JJ	.
24F#\LL	24f#/LL	.
24A\	24a/	.
24G\JJ	24g/JJ	.
24B\LL	24b/LL	.
24D\	24d/	.
24Fn\JJ	24fn/JJ	.
=140	=140	=140
24E\LL	24e/LL	.
24G\	24g/	.
24F\JJ	24f/JJ	.
24E\LL	24e/LL	.
24D\	24d/	.
24C\JJ	24c/JJ	.
24BB\LL	24B/LL	.
24D\	24d/	.
24C\JJ	24c/JJ	.
24E\LL	24e/LL	.
24FF#\	24F#/	.
24AA\JJ	24A/JJ)	.
=141	=141	=141
*^	*	*
(24G/LL	24GG\LL	2r	.
24A/	24AA\	.	.
24F#/JJ	24FF#\JJ	.	.
24G/LL	24GG\LL	.	.
24A/	24AA\	.	.
24F#/JJ	24FF#\JJ	.	.
24G/LL	24GG\LL	.	.
24A/	24AA\	.	.
24F#/JJ	24FF#\JJ	.	.
24G/LL	24GG\LL	.	.
24A/	24AA\	.	.
24F#/JJ	24FF#\JJ	.	.
=142	=142	=142	=142
8G/)	8GG\)	8r	.
*clefG2	*clefG2	*	*
(8B/ 8d/L	4.r	8r	.
8c/ 8e/	.	8r	.
8d/) 8fn/J	.	8g/	.
*v	*v	*	*
=143	=143	=143
4c/ 4e/	(24gg\LL	.
.	24aa\	.
.	24gg\JJ	.
.	24ffn\LL	.
.	24ee\	.
.	24dd\JJ	.
4r	24ee\LL	.
.	24ff\	.
.	24ee\JJ	.
.	24dd\LL	.
.	24cc\	.
.	24b\JJ	.
=144	=144	=144
2r	24cc\LL	.
.	24dd\	.
.	24cc\JJ	.
.	24b/LL	.
.	24a/	.
.	24g#/JJ	.
.	24a/LL	.
.	24b/	.
.	24a/JJ	.
.	24gn/LL	.
.	24f/	.
.	24e/JJ	.
*clefF4	*	*
=145	=145	=145
8r	8.f/L	.
8C\ 8D\ 8A\L	.	.
.	32a/LL	.
.	32g/JJJ	.
8C\ 8D\ 8A\	8f/)	.
8C\ 8D\ 8A\J	16r	.
.	16f/	p
=146	=146	=146
8r	(8.f/L	.
8C\ 8D\ 8A-\L	.	.
.	32a-/LL	.
.	32g/JJJ	.
8C\ 8D\ 8A-\	8f/)	.
8C\ 8D\ 8A-\J	16r	.
.	16f/	.
=147	=147	=147
4BB\ 4D\ 4G\	(24ff\LL	f
.	24gg\	.
.	24ff\JJ	.
.	24ee\LL	.
.	24dd\	.
.	24cc#\JJ	.
4r	24dd\LL	.
.	24ee\	.
.	24dd\JJ	.
.	24ccn\LL	.
.	24b\	.
.	24a#\JJ	.
=148	=148	=148
2r	24b\LL	.
.	24cc\	.
.	24b\JJ	.
.	24an/LL	.
.	24g/	.
.	24f#/JJ	.
.	24g/LL	.
.	24a/	.
.	24g/JJ	.
.	24fn/LL	.
.	24e/	.
.	24d/JJ	.
=149	=149	=149
8r	8.e/L	.
8C\ 8G\L	.	.
.	32g/LL	.
.	32f/JJJ	.
8C\ 8G\	8e/)	.
8C\ 8G\J	16r	.
.	16e/	p
=150	=150	=150
8r	(8.e/L	.
8C\ 8G\L	.	.
.	32g/LL	.
.	32f/JJJ	.
8C\ 8G\	8e/)	.
8C\ 8G\J	16r	.
.	16gg\	.
=151	=151	=151
4E\ 4G\ 4c\	(24ccc\LL	f
.	24ddd\	.
.	24ccc\JJ	.
.	24aa\LL	.
.	24gg\	.
.	24ff#\JJ	.
4r	24gg\LL	.
.	24aa\	.
.	24gg\JJ	.
.	24ff#\LL	.
.	24ee\	.
.	24dd\JJ	.
=152	=152	=152
2r	24ee\LL	.
.	24ff\	.
.	24ee\JJ	.
.	24dd\LL	.
.	24cc\	.
.	24b\JJ	.
.	24cc\LL	.
.	24dd\	.
.	24cc\JJ	.
.	24g/LL	.
.	24f/	.
.	24e/JJ	.
=153	=153	=153
8r	8.d/L	.
8F\ 8A\ 8c\L	.	.
.	32f/LL	.
.	32e/JJJ	.
8F\ 8A\ 8c\	8d/)	.
8F\ 8A\ 8c\J	16r	.
.	16d/	p
=154	=154	=154
8r	(8.d/L	.
8F\ 8A\ 8c\L	.	.
.	32f/LL	.
.	32e/JJJ	.
8F\ 8A\ 8c\	8d/)	.
8F\ 8A\ 8c\J	16r	.
.	16dd\	.
=155	=155	=155
4F\ 4A\	(24ccc\LL	f
.	24ddd\	.
.	24ccc\JJ	.
.	24bb\LL	.
.	24aa\	.
.	24gg#\JJ	.
4r	24aa\LL	.
.	24bb\	.
.	24aa\JJ	.
.	24ggn\LL	.
.	24ff\	.
.	24ee\JJ	.
=156	=156	=156
2r	24ff\LL	.
.	24gg\	.
.	24ff\JJ	.
.	24ee\LL	.
.	24dd\	.
.	24cc#\JJ	.
.	24dd\LL	.
.	24ee\	.
.	24dd\JJ	.
.	24ccn\LL	.
.	24b\	.
.	24a\JJ	.
=157	=157	=157
*^	*	*
16B/LL	8G\L	8b\L	p
16d/	.	.	.
16B/	8A-\	8ff\)	.
16d/JJ	.	.	.
16B/LL	8G\	8ff'\	.
16d/	.	.	.
16B/	8A-\J	8ff'\J	.
16d/JJ	.	.	.
=158	=158	=158	=158
16B/LL	8G\L	(8.ff\L	.
16d/	.	.	.
16B/	8A-\	.	.
16d/JJ	.	16dd\Jk	.
16B/LL	8G\	8b'\)	.
16d/	.	.	.
16B/	8A-\J	8r	.
16d/JJ	.	.	.
=159	=159	=159	=159
16B/LL	8G\L	16r	.
16d/	.	(16f\LL	.
16B/	8A-\	16ff\)	.
16d/JJ	.	16ff'\JJ	.
16B/LL	8G\	16ff'\LL	<
16d/	.	16ff'\	.
16B/	8A-\J	16ff'\	.
16d/JJ	.	16ff'\JJ	.
=160	=160	=160	=160
16B/LL	8G\L	(8.ff\L	.
16d/	.	.	.
16B/	8A-\	.	.
16d/JJ	.	16dd\Jk	.
16B/LL	8G\	8b'\)	.
16d/	.	.	.
16B/	8A-\J	8r	.
16d/JJ	.	.	.
=161	=161	=161	=161
16B/LL	8G\L	[8ff\L	f
16d/	.	.	.
16B/	8A-\	(32ff\LL]	.
.	.	32dd\	.
16d/JJ	.	32ff\	.
.	.	32dd\JJJ	.
16B/LL	8G\	8b'\)	.
16d/	.	.	.
16B/	8F\J	8r	.
16d/JJ	.	.	.
*v	*v	*	*
=162	=162	=162
8E\ 8c\	32g\LLL	ff
.	32gg\	.
.	32g\	.
.	32gg\JJJ	.
8r	32g\LLL	.
.	32gg\	.
.	32g\	.
.	32gg\JJJ	.
8c\ 8e\L	32g\LLL	.
.	32gg\	.
.	32g\	.
.	32gg\JJJ	.
8B\ 8f\J	32g\LLL	.
.	32gg\	.
.	32g\	.
.	32gg\JJJ	.
=163	=163	=163
8c\ 8e\	32g\LLL	.
.	32gg\	.
.	32g\	.
.	32gg\JJJ	.
8r	32g\LLL	.
.	32gg\	.
.	32g\	.
.	32gg\JJJ	.
8C\ 8E\L	32g\LLL	.
.	32gg\	.
.	32g\	.
.	32gg\JJJ	.
8BB\ 8F\J	32g\LLL	.
.	32gg\	.
.	32g\	.
.	32gg\JJJ	.
=164	=164	=164
8C\ 8E\	32g\LLL	.
.	32gg\	.
.	32g\	.
.	32gg\JJJ	.
8r	32g\LLL	.
.	32gg\	.
.	32g\	.
.	32gg\JJJ	.
16c'\ 16e'\LL	32g\LLL	.
.	32gg\	.
16c'\ 16e'\	32g\	.
.	32gg\JJJ	.
16B'\ 16f'\	32g\LLL	.
.	32gg\	.
16B'\ 16f'\JJ	32g\	.
.	32gg\JJJ	.
=165	=165	=165
8c\ 8e\	32g\LLL	.
.	32gg\	.
.	32g\	.
.	32gg\JJJ	.
8r	32g\LLL	.
.	32gg\	.
.	32g\	.
.	32gg\JJJ	.
16C'\ 16E'\LL	32g\LLL	.
.	32gg\	.
16C'\ 16E'\	32g\	.
.	32gg\JJJ	.
16BB'\ 16F'\	32g\LLL	.
.	32gg\	.
16BB'\ 16F'\JJ	32g\	.
.	32gg\JJJ	.
=166	=166	=166
8C\ 8E\	16g\ 16gg\	.
.	16ff'\LL	.
8r	16ee'\	.
.	16dd'\JJ	.
4r	16cc'\LL	.
.	16b'\	.
.	16a'\	.
.	16g'\JJ	.
=167	=167	=167
.	(32ffq/LLL	.
.	32ggq/JJJ	.
8FF/ 8AA/ 8D/	16aa'\LL)	.
.	16gg'\	.
8r	16ff'\	.
.	16ee'\JJ	.
4r	16dd'\LL	.
.	16cc'\	.
.	16b'\	.
.	16a'\JJ	.
=168	=168	=168
8GG/ 8G/	8g/	.
8r	8r	.
8GG#/ 8G#/	8d/ 8f/ 8b/	.
8r	8r	.
=169	=169	=169
8AA\ 8A\	8c/ 8e/ 8cc/	.
8r	8r	.
4r	4r	.
*clefG2	*	*
=170	=170	=170
.	(32dddq/	.
8r	4ccc\	p
8f#/ 8a/ 8dd/L	.	.
8f#/ 8a/ 8dd/	(16ccc\LL)	.
.	16bb\)	.
8f#/ 8a/ 8dd/J	(16ccc\	.
.	16aa\JJ)	.
=171	=171	=171
8r	[4gg\	.
8g\ 8cc\ 8ee\L	.	.
8g\ 8cc\ 8ee\	(16gg\LL]	.
.	16ff#\)	.
8g\ 8cc\J	(16gg\	.
.	16ee\JJ)	.
=172	=172	=172
.	32ggq/	.
8r	[4ffn\	.
8g\ 8b\ 8dd\L	.	.
8g\ 8b\ 8dd\	(16ff\LL]	.
.	16ee\)	.
8g\ 8b\J	(16ff\	.
.	16dd\JJ)	.
=173	=173	=173
4r	32g\LLL	f
.	32gg\	.
.	32g\	.
.	32gg\JJJ	.
.	32g\LLL	.
.	32gg\	.
.	32g\	.
.	32gg\JJJ	.
*clefF4	*	*
8c\ 8e-\L	32g\LLL	.
.	32gg\	.
.	32g\	.
.	32gg\JJJ	.
8B\ 8f\J	32g\LLL	.
.	32gg\	.
.	32g\	.
.	32gg\JJJ	.
=174	=174	=174
8c\ 8e-\	32g\LLL	.
.	32gg\	.
.	32g\	.
.	32gg\JJJ	.
8r	32g\LLL	.
.	32gg\	.
.	32g\	.
.	32gg\JJJ	.
8C\ 8E-\L	32g\LLL	.
.	32gg\	.
.	32g\	.
.	32gg\JJJ	.
8BB\ 8F\J	32g\LLL	.
.	32gg\	.
.	32g\	.
.	32gg\JJJ	.
=175	=175	=175
8C\ 8E-\	32g\LLL	.
.	32gg\	.
.	32g\	.
.	32gg\JJJ	.
8r	32g\LLL	.
.	32gg\	.
.	32g\	.
.	32gg\JJJ	.
16c'\ 16en'\LL	32g\LLL	.
.	32gg\	.
16c'\ 16e'\	32g\	.
.	32gg\JJJ	.
16B'\ 16f'\	32g\LLL	.
.	32gg\	.
16B'\ 16f'\JJ	32g\	.
.	32gg\JJJ	.
=176	=176	=176
8c\ 8e\	32g\LLL	.
.	32gg\	.
.	32g\	.
.	32gg\JJJ	.
8r	32g\LLL	.
.	32gg\	.
.	32g\	.
.	32gg\JJJ	.
16C'\ 16En'\LL	32g\LLL	.
.	32gg\	.
16C'\ 16E'\	32g\	.
.	32gg\JJJ	.
16BB'\ 16F'\	32g\LLL	.
.	32gg\	.
16BB'\ 16F'\JJ	32g\	.
.	32gg\JJJ	.
=177	=177	=177
8C\ 8E\	32g\LLL	.
.	32gg\	.
.	32g\	.
.	32gg\JJJ	.
4.E\ 4.B\ 4.d\	32g#\LLL	.
.	32gg#\	.
.	32g#\	.
.	32gg#\JJJ	.
.	32g#\LLL	.
.	32gg#\	.
.	32g#\	.
.	32gg#\JJJ	.
.	32g#\LLL	.
.	32gg#\	.
.	32g#\	.
.	32gg#\JJJ	.
=178	=178	=178
8F\ 8c\	32a\LLL	.
.	32aa\	.
.	32a\	.
.	32aa\JJJ	.
4.Gn\ 4.c#\ 4.e\	32b-\LLL	.
.	32bb-\	.
.	32b-\	.
.	32bb-\JJJ	.
.	32b-\LLL	.
.	32bb-\	.
.	32b-\	.
.	32bb-\JJJ	.
.	32b-\LLL	.
.	32bb-\	.
.	32b-\	.
.	32bb-\JJJ	.
=179	=179	=179
8F\ 8A\ 8d\	(24aa\LL	.
.	24bb-\	.
.	24aa\JJ	.
8r	24ggn\LL	.
.	24aa\	.
.	24gg\JJ	.
4r	24ff\LL	.
.	24gg\	.
.	24ff\JJ	.
.	24ee\LL	.
.	24ff\	.
.	24ee\JJ	.
=180	=180	=180
4r	24dd\LL	.
.	24ee\	.
.	24dd\JJ	.
.	24ee\LL	.
.	24ff\	.
.	24ee\JJ	.
8r	24ff\LL	.
.	24gg\	.
.	24ff\JJ	.
8E\ 8G\ 8c#\	24bb-\LL	.
.	24ccc\	.
.	24bb-\JJ	.
=181	=181	=181
8F\ 8A\ 8d\	24aa\LL	p
.	24bb-\	.
.	24aa\JJ	.
8r	24gg\LL	.
.	24aa\	.
.	24gg\JJ	.
4r	24ff\LL	.
.	24gg\	.
.	24ff\JJ	.
.	24ee\LL	.
.	24ff\	.
.	24ee\JJ	.
=182	=182	=182
4r	24dd\LL	.
.	24ee\	.
.	24dd\JJ	.
.	24ee\LL	.
.	24ff\	.
.	24ee\JJ	.
8r	24ff\LL	.
.	24gg\	.
.	24ff\JJ	.
8E\ 8G\ 8c#\	24bb-\LL	.
.	24ccc\	.
.	24bb-\JJ)	.
=183	=183	=183
[2F\ 2A\ [2d\	(24aa\LL	.
.	24ccc\	.
.	24bbn\JJ	.
.	24aa\LL	.
.	24bb\	.
.	24ccc\JJ	.
.	24ff\LL	.
.	24aa\	.
.	24gg\JJ	.
.	24ff\LL	.
.	24gg\	.
.	24aa\JJ	.
=184	=184	=184
*^	*	*
2A/ 2d/]	4F\]	24dd\LL	.
.	.	24ff\	.
.	.	24ee\JJ	.
.	.	24dd\LL	.
.	.	24ee\	.
.	.	24ff\JJ	.
.	4F#\	24a\LL	.
.	.	24cc\	.
.	.	24b\JJ	.
.	.	24a\LL	.
.	.	24b\	.
.	.	24cc\JJ	.
*v	*v	*	*
=185	=185	=185
8G\ 8B\ 8d\	24b/LL	.
.	24g/	.
.	24b/JJ	.
8r	24dd\LL	.
.	24b\	.
.	24dd\JJ	.
4r	24gg\LL	.
.	24dd\	.
.	24gg\JJ	.
.	24bb\LL	.
.	24gg\	.
.	24bb\JJ	.
=186	=186	=186
8r	24ddd\LL	.
.	24bb\)	.
.	24ddd\JJ	.
[4.GG/ [4.BB/ [4.D/ [4.G/	[4.ff\ [4.fff\	.
=187	=187	=187
8GG/] 8BB/] 8D/] 8G/]	16ff\] 16fff\LL]	.
.	(16fff\	.
8r	16ddd#\	.
.	16eee\JJ	.
4r	16ccc#\LL	.
.	16dddn\	.
.	16bb\	.
.	16cccn\JJ	.
=188	=188	=188
2r	16aa#\LL	.
.	16bb\	.
.	16gg#\	.
.	16aan\JJ	.
.	16ff#\LL	.
.	16ggn\	.
.	16ffn\	.
.	16gg\JJ)	.
*clefG2	*	*
=189	=189	=189
16c/LL	(16ff\LL	.
16e/	16ee\	.
16g/	16dd\	.
16e/JJ	16cc\JJ)	.
16c/LL	8cc\L	.
16e/	.	.
16g/	8cc\J	.
16e/JJ	.	.
=190	=190	=190
.	16bq/LL	.
.	16ccq/	.
.	16ddq/JJ	.
16c/LL	4.cc\	.
16e/	.	.
16g/	.	.
16e/JJ	.	.
16c/LL	.	.
16e/	.	.
16g/	8ccc\	.
16e/JJ	.	.
=191	=191	=191
16c/LL	(16bb\LL	.
16f/	16aa\	.
16a/	16gg\	.
16f/JJ	16ff\JJ)	.
16c/LL	8ff\L	.
16f/	.	.
16a/	8ff\J	.
16f/JJ	.	.
=192	=192	=192
.	32eeq/LLL	.
.	(32ffq/	.
.	32ggq/JJJ	.
16c/LL	4.ff\)	.
16f/	.	.
16a/	.	.
16f/JJ	.	.
16c/LL	.	.
16f/	.	.
16a/	8aa\	.
16f/JJ	.	.
=193	=193	=193
16c/LL	(16aa\LL	.
16e/	16gg\	.
16g/	16ff\	.
16e/JJ	16ee\JJ)	.
16c#/LL	(8ee\L	.
16a/	.	.
16b-/	16gg\Jk)	.
16a/JJ	16r	.
=194	=194	=194
16d/LL	(16gg\LL	.
16f/	16ff\	.
16a/	16ee\	.
16f/JJ	16dd\JJ)	.
16Bn/LL	(8dd\L	.
16g/	.	.
16a-/	16ff\Jk)	.
16g/JJ	16r	.
=195	=195	=195
16cn/LL	(16ff\LL	.
16g/	16ee\	.
16e/	16dd\	.
16g/JJ	(16cc\JJ)	.
16d/LL	8b\L	.
16f/	.	.
16c/	8cc\J)	.
16e/JJ	.	.
=196	=196	=196
16G/LL	(4ee\	.
16c/	.	.
16e/	.	.
16c/JJ	.	.
8G/ 8B/	16dd'\LL)	.
.	(16gg\	.
8r	16ff#\	.
.	16ffn\JJ)	.
*clefF4	*	*
=197	=197	=197
(16C\LL	(16ff\LL	f
16c\	16ee\	.
16E\	16dd\	.
16c\JJ	16cc\JJ)	.
16G\LL	(16cc'\LL	.
16c\	16cc'\	.
16E\	16cc'\	.
16c\JJ)	16cc'\JJ)	.
=198	=198	=198
16C\LL	4.cc\	.
16c\	.	.
16E\	.	.
16c\JJ	.	.
16G\LL	.	.
16c\	.	.
.	32bq/LLL	.
.	32ccq/JJJ	.
16E\	8ccc\	.
16c\JJ	.	.
=199	=199	=199
16C\LL	(16bb\LL	.
16c\	16aa\	.
16F\	16gg\	.
16c\JJ	(16ff\JJ)	.
16A\LL	16ff'\LL	.
16c\	16ff'\	.
16F\	16ff'\	.
16c\JJ	16ff'\JJ)	.
=200	=200	=200
16C\LL	[4ff\	.
16c\	.	.
16F\	.	.
16c\JJ	.	.
.	32eeq/	.
16A\LL	16ff\LL]	.
16c\	(16aa\	.
16F\	16ccc\	.
16c\JJ	16aa\JJ)	.
=201	=201	=201
16E\LL	(16ff#\LL	.
16c\	16gg\J)	.
16G\	[8eee\J	.
16c\JJ	.	.
16C#\LL	16eee\LL]	.
16A\	(16gg\	.
16E\	16aa\	.
16A\JJ	16ee\JJ)	.
=202	=202	=202
16Cn\LL	(16gg\LL	.
16A\	16ff#\J)	.
16F#\	[8ddd\J	.
16A\JJ	.	.
16BB\LL	16ddd\LL]	.
16G\	(16ffn\	.
16D\	16gg\	.
16G\JJ	16dd\JJ)	.
=203	=203	=203
*^	*	*
8r	16C\LL	(16ff\LL	.
.	16G\JJ	16ee\JJ)	.
(16A/LL	8Fn\	(32gg\LLL	.
.	.	32ff\	.
16d/JJ)	.	32ee\	.
.	.	32dd\JJJ	.
4r	(16G\LL	8cc\L)	.
.	(16e\)	.	.
.	16G\	8b\J	.
.	16f\JJ)	.	.
*v	*v	*	*
=204	=204	=204
.	(16aq/LL	.
.	16bq/JJ)	.
8c\ 8e\	(24gg\LL	.
.	24ee\	.
.	24gg\JJ	.
8r	24ccc\LL	.
.	24gg\	.
.	24ccc\JJ	.
8r	24eee\LL	.
.	24ddd\	.
.	24ccc\JJ	.
8C#\ 8E\ 8A\	24bb-\LL	.
.	24aa\	.
.	24gg\JJ	.
=205	=205	=205
8D\ 8F\ 8A\	24ff\LL	.
.	24gg\	.
.	24ff\JJ	.
8r	24ee\LL	.
.	24dd\	.
.	24cc\JJ	.
8GG/ 8D/ 8F/	24bn/LL	.
.	24a/	.
.	24g/JJ	.
8r	24f/LL	.
.	24e/	.
.	24d/JJ	.
=206	=206	=206
*^	*	*
(8C/L	8r	24e/LL	.
.	.	24g/	.
.	.	24cc/JJ	.
8F/J)	8FF\	24a/LL	.
.	.	24f/	.
.	.	24d/JJ	.
(8E/L	4GG\	8c/L)	.
8BB/J)	.	8d/J	.
*v	*v	*	*
=207	=207	=207
.	32cq/LLL	.
.	32dq/JJJ	.
8C/	8c/	.
(24e\LL	(24ee\LL	.
24d\	24dd\	.
24c\JJ	24cc\JJ	.
24B\LL	24b\LL	.
24d\	24dd\	.
24c\JJ	24cc\JJ	.
24e\LL	24ee\LL	.
24G#\)	24g#\	.
24B\JJ	24b\JJ	.
=208	=208	=208
(24A\LL	24a/LL	.
24c\	24cc/	.
24B\JJ	24b/JJ	.
24A\LL	24a/LL	.
24Gn\	24gn/	.
24F\JJ	24f/JJ	.
24E\LL	24e/LL	.
24G\	24g/	.
24F\JJ	24f/JJ	.
24A\LL	24a/LL	.
24C#\	24c#/	.
24E\JJ	24e/JJ	.
=209	=209	=209
24D\LL	24d/LL	.
24F\	24f/	.
24E\JJ	24e/JJ	.
24D\LL	24d/LL	.
24Cn\	24cn/	.
24BB\JJ	24B/JJ	.
24AA\LL	24A/LL	.
24C\	24c/	.
24BB\JJ	24B/JJ	.
24D\LL	24d/LL	.
24FF#\)	24F#/	.
24AA\JJ	24A/JJ	.
=210	=210	=210
8GG\	8G/)	.
8r	8r	.
4r	16G'/LL	p
.	16A'/	.
.	16B'/	.
.	16c'/JJ	.
=211	=211	=211
8r	8d/	.
8GG/ 8BB/ 8D/	8r	.
4r	16g'/LL	<
.	16a'/	.
.	16b'/	.
.	16cc'/JJ	.
=212	=212	=212
8r	8dd\	.
8GG/ 8BB/ 8D/	8r	.
4r	16b'\LL	f
.	16cc'\	.
.	16dd'\	.
.	16ee'\JJ	.
=213	=213	=213
8r	8ffn\	.
8G\ 8B\ 8d\	8r	.
4r	16cc'\LL	p
.	16dd'\	.
.	16ee'\	.
.	16ff'\JJ	.
=214	=214	=214
2r	8gg'\L	.
.	8aa'\	.
.	8gg'\	.
.	8ff#'\J	.
=215	=215	=215
8r	8ffn\	.
8G#\ 8B\	8r	.
8r	8ee\	.
8A\ 8c\	8r	.
=216	=216	=216
4F\ 4A\	8r	.
.	(8dd\L	.
8r	8ff\	.
8Gn\ 8f\	8b\J	.
=217	=217	=217
8c\ 8e\L	8cc\)	f
8C\J	8r	.
16CC'/ 16C'/LL	4r	.
16DD'/ 16D'/	.	.
16EE'/ 16E'/	.	.
16FF'/ 16F'/JJ	.	.
=218	=218	=218
8GG'/ 8G'/L	2r	.
8AA'/ 8A'/	.	.
8GG'/ 8G'/	.	.
8FF#'/ 8F#'/J	.	.
=219	=219	=219
8FFn/ 8Fn/	8r	.
8r	8dd\ 8gg#\ 8bb\	.
8EE/ 8E/	8r	.
8r	8cc#\ 8ggn\ 8bb-\	.
=220	=220	=220
*^	*	*
8r	4F\	24r	.
.	.	24aa\LL	.
.	.	(24gg#\JJ	.
8d/L	.	24aa\LL	.
.	.	24ff\	.
.	.	24dd\JJ	.
8e/	8G\L	8ccn\L)	.
8B/J	8G\J	8dd\J	ff
*v	*v	*	*
=221	=221	=221
.	(16ccq/LL	.
.	16ddq/JJ)	.
4r	32g\LLL	.
.	32gg\	.
.	32g\	.
.	32gg\JJJ	.
.	32g\LLL	.
.	32gg\	.
.	32g\	.
.	32gg\JJJ	.
8c\ 8e\L	32g\LLL	.
.	32gg\	.
.	32g\	.
.	32gg\JJJ	.
8B\ 8f\J	32g\LLL	.
.	32gg\	.
.	32g\	.
.	32gg\JJJ	.
=222	=222	=222
8c\ 8e\	32g\LLL	.
.	32gg\	.
.	32g\	.
.	32gg\JJJ	.
8r	32g\LLL	.
.	32gg\	.
.	32g\	.
.	32gg\JJJ	.
8C\ 8E\L	32g\LLL	.
.	32gg\	.
.	32g\	.
.	32gg\JJJ	.
8BB\ 8F\J	32g\LLL	.
.	32gg\	.
.	32g\	.
.	32gg\JJJ	.
=223	=223	=223
8C\ 8E\	32g\LLL	.
.	32gg\	.
.	32g\	.
.	32gg\JJJ	.
8r	32g\LLL	.
.	32gg\	.
.	32g\	.
.	32gg\JJJ	.
16c'\ 16e'\LL	32g\LLL	.
.	32gg\	.
16c'\ 16e'\	32g\	.
.	32gg\JJJ	.
16B'\ 16f'\	32g\LLL	.
.	32gg\	.
16B'\ 16f'\JJ	32g\	.
.	32gg\JJJ	.
=224	=224	=224
8c\ 8e\	32g\LLL	.
.	32gg\	.
.	32g\	.
.	32gg\JJJ	.
8r	32g\LLL	.
.	32gg\	.
.	32g\	.
.	32gg\JJJ	.
16C'\ 16E'\LL	32g\LLL	.
.	32gg\	.
16C'\ 16E'\	32g\	.
.	32gg\JJJ	.
16BB'\ 16F'\	32g\LLL	.
.	32gg\	.
16BB'\ 16F'\JJ	32g\	.
.	32gg\JJJ	.
=225	=225	=225
8C\ 8E\	32g\LLL	.
.	32gg\	.
.	32g\	.
.	32gg\JJJ	.
4.C#\ 4.E\ 4.G\	32b-\LLL	.
.	32bb-\	.
.	32b-\	.
.	32bb-\JJJ	.
.	32b-\LLL	.
.	32bb-\	.
.	32b-\	.
.	32bb-\JJJ	.
.	32b-\LLL	.
.	32bb-\	.
.	32b-\	.
.	32bb-\JJJ	.
=226	=226	=226
8D\ 8F\	32a\LLL	.
.	32aa\	.
.	32a\	.
.	32aa\JJJ	.
4.GG#/ 4.D/ 4.F/	32bn\LLL	.
.	32bbn\	.
.	32b\	.
.	32bb\JJJ	.
.	32b\LLL	.
.	32bb\	.
.	32b\	.
.	32bb\JJJ	.
.	32b\LLL	.
.	32bb\	.
.	32b\	.
.	32bb\JJJ	.
=227	=227	=227
8AA/ 8C/ 8E/	32cc\LLL	.
.	32ccc\	.
.	32cc\	.
.	32ccc\JJJ	.
4.F#\ 4.A\ 4.c\	32e-/LLL	.
.	32ee-/	.
.	32e-/	.
.	32ee-/JJJ	.
.	32e-/LLL	.
.	32ee-/	.
.	32e-/	.
.	32ee-/JJJ	.
.	32e-/LLL	.
.	32ee-/	.
.	32e-/	.
.	32ee-/JJJ	.
=228	=228	=228
8G\ 8c\	24r	.
.	(24een\LL	p
.	24dd#\JJ	.
8r	24ee\LL	.
.	24cc\	.
.	24g\JJ)	.
8G\ 8c\ 8e\	24r	.
.	(24gg\LL	.
.	24ff#\JJ	.
8r	24gg\LL	.
.	24ee\	.
.	24cc\JJ)	.
=229	=229	=229
8G\ 8c\ 8e\	24r	.
.	(24ccc\LL	<
.	24bb\JJ	.
8r	24ccc\LL	.
.	24gg\	.
.	24ee\JJ)	.
8G\ 8c\ 8e\	24r	.
.	24eee\LL	.
.	(24ddd#\JJ	.
8r	24eee\LL	.
.	24ccc\	.
.	24gg\JJ)	.
*clefG2	*	*
=230	=230	=230
24r	8ff#\ 8aa\ 8ccc\ 8eee-\	f
(24cc\LL	.	.
24b\JJ	.	.
24cc/LL	8r	.
24a/	.	.
24f#/JJ)	.	.
24r	8ff#\ 8aa\ 8ccc\ 8eee-\	.
(24a/LL	.	.
24g#/JJ	.	.
24a/LL	8r	.
24f#/	.	.
24c/JJ)	.	.
=231	=231	=231
24r	8ff#\ 8aa\ 8ccc\ 8eee-\	.
(24f#/LL	.	.
24e#/JJ	.	.
24f#/LL	8r	.
24c/	.	.
24A/JJ)	.	.
*clefF4	*	*
24r	8ff#\ 8aa\ 8ccc\ 8eee-\	.
(24c\LL	.	.
24B\JJ	.	.
24c\LL	8r	.
24A\	.	.
24F#\JJ)	.	.
=232	=232	=232
8G\ 8c\L	32eeen\LLL	.
.	(32ddd\	.
.	32ccc\	.
.	32bb\JJJ	.
8G\ 8c\	32ccc\LLL	.
.	32bb\	.
.	32aa\	.
.	32gg\JJJ	.
8G\ 8c\	32aa\LLL	.
.	32gg\	.
.	32ffn\	.
.	32ee\JJJ	.
8G\ 8c\J	32ff\LLL	.
.	32ee\	.
.	32dd\	.
.	32cc\JJJ)	.
=233	=233	=233
8G\ 8c\L	2dd\	.
8G\ 8c\	.	.
8G\ 8B\	.	.
8G\ 8B\J	.	.
=234	=234	=234
.	(16ccq/LL	.
.	16ddq/JJ)	.
8c\	8cc\	.
8GG/ 8G/L	8r	.
8EE/ 8E/	(16c/LL	.
.	16e/	.
8CC/ 8C/J	16g/	.
.	16cc/JJ)	.
=235	=235	=235
*	*^	*
8GG/ 8G/	4cc/	4e\	.
8G\L	.	.	.
8G\	(16ee/LL	4f\	.
.	16dd/	.	.
8G\J	16cc/	.	.
.	16dd/JJ)	.	.
=236	=236	=236	=236
8c\	8cc/	8e\	.
8GG/ 8G/L	8r	4.r	.
8EE/ 8E/	16c/ 16e/LL	.	.
.	16e/ 16g/	.	.
8CC/ 8C/J	16g/ 16cc/	.	.
.	16cc/ 16ee/JJ	.	.
*	*v	*v	*
=237	=237	=237
8GG/ 8G/	4cc\ 4ee\	.
8G\L	.	.
8G\	16ee\ (16gg\LL	.
.	16dd\ 16ff\	.
8G\J	16cc\ 16ee\	.
.	16dd\ 16ff\JJ	.
=238	=238	=238
8c\	8cc\ 8ee\)	.
8GG/ 8G/L	8r	.
8EE/ 8E/	16e\ 16g\LL	.
.	16g\ 16cc\	.
8CC/ 8C/J	16cc\ 16ee\	.
.	16ee\ 16gg\JJ	.
=239	=239	=239
*	*^	*
8GG/ 8G/	4r	4ee\ 4gg\	.
8G\L	.	.	.
8G\	(8.bb/L	4dd\	.
8G\J	.	.	.
.	32aa/LL	.	.
.	32bb/JJJ)	.	.
=240	=240	=240	=240
4C/	8ccc/	8ee\	.
.	4.r	(24gg\LL	.
.	.	24ee\	.
.	.	24cc\JJ	.
8r	.	24ee\LL	.
.	.	24cc\	.
.	.	24g\JJ	.
8G\ 8d\ 8f\	.	24bb\LL	.
.	.	24gg\	.
.	.	24dd\JJ	.
*	*v	*v	*
=241	=241	=241
4c\ 4e\	24ccc\LL	.
.	24gg\	.
.	24ee\JJ	.
.	24gg\LL	.
.	24ee\	.
.	24cc\JJ	.
8r	24ee\LL	.
.	24cc\	.
.	24g\JJ	.
8G\ 8d\ 8f\	24bb\LL	.
.	24gg\	.
.	24dd\JJ)	.
=242	=242	=242
8c\ 8e\	8ee\ 8gg\ 8ccc\	.
(24C\LL	8r	.
24E\	.	.
24G\JJ	.	.
24E\LL	8r	.
24G\	.	.
24c\JJ	.	.
24G\LL	8dd\ 8gg\ 8bb\	.
24B\	.	.
24d\JJ	.	.
=243	=243	=243
24c\LL	8gg\ 8ccc\	.
24e\	.	.
24g\JJ)	.	.
(24C\LL	8r	.
24E\	.	.
24G\JJ	.	.
24E\LL	8r	.
24G\	.	.
24c\JJ	.	.
24G\LL	8dd\ 8gg\ 8bb\	.
24B\	.	.
24d\JJ	.	.
=244	=244	=244
4c\ 4e\)	4ee\ 4gg\ 4ccc\	.
4r	8r	.
.	8g/	p
=245	=245	=245
16CC/LL	(16f/LL	.
16GG/	16e/	.
16EE/	16d/	.
16GG/JJ	16c/JJ)	.
16C/LL	8c/L	.
16GG/	.	.
16EE/	8c/J	.
16GG/JJ	.	.
=246	=246	=246
16CC/LL	4.c/	.
16GG/	.	.
16EE/	.	.
16GG/JJ	.	.
16BB-/LL	.	.
16GG/	.	.
16EE/	8cc\	.
16GG/JJ	.	.
=247	=247	=247
16CC/LL	(16b-/LL	.
16AA/	16a/	.
16FF/	16g/	.
16AA/JJ	16f/JJ)	.
16C/LL	8f/L	.
16AA/	.	.
16FF/	8f/J	.
16AA/JJ	.	.
=248	=248	=248
16CC/LL	4.f/	.
16AA/	.	.
16FF/	.	.
16AA/JJ	.	.
16C/LL	.	.
16AA/	.	.
16FF/	8a/	.
16AA/JJ	.	.
=249	=249	=249
16CC/LL	(16g/LL	.
16GG/	16f/	.
16FF/	16e/	.
16GG/JJ	16d/JJ)	.
16BBn/LL	8d/L	.
16GG/	.	.
16FF/	8d/J	.
16GG/JJ	.	.
=250	=250	=250
16CC/LL	(8.g/L	pp
16BB/	.	.
16GG/	.	.
16BB/JJ	16a/Jk)	.
16D/LL	(16g/LL	.
16BB/	16f/	.
16GG/	16e/	.
16BB/JJ	16d/JJ)	.
=251	=251	=251
16CC\LL	(16d/LL	.
16GG\	16c/J)	.
16EE\	8E/ 8G/ 8c/	.
16GG\JJ	.	.
16C\LL	8E/ 8G/ 8c/	.
16GG\	.	.
16EE\	8E/ 8G/ 8c/J	.
16GG\JJ	.	.
=252	=252	=252
4CC\ 4C\	4E/ 4G/ 4c/	.
8r	8r	.
==	==	==
*-	*-	*-
!!!SMS: Alte Mozart-Ausgabe, Band 20, Breitkopf &amp; H&auml;rtel 1877-1883.
!!!ONB: Stich und Druck von Breitkopf &amp; H&auml;rtel in Leipzig
!!!ONB: Ausgegeben 1878
!!!ENC: Craig Stuart Sapp
!!!END: 2009/09/24/
!!!title: @{OTL}, K 309 (284b), @{OMV}
!!!hum2abc: --no-tempo -s 0.65 --spacing 2.0 -p "%gracespace  0 6.0 12.0"
